!!!OTL-incipit: SCHOENE AUGEN SCHOENE STRAHLEN
!!!ARE: Europa, Mitteleuropa, Deutschland
!!!SCT: Z0281
!!!TXL: @@DE
!!!YEM: Copyright 1995, estate of Helmut Schaffrath.
**kern	**text
*ICvox	*
*M3/4	*
*k[]	*
*C:	*
=1	=1
!LO:TX:a:t=Altes Lied.	!
{8cc	Schö-
8b	-ne
8cc	Au-
8a	-gen,
8g	ſchö-
8a	-ne
=2	=2
(4g	Strah-
4f)	.
4e}	-len,
=3	=3
{8cc	ſchö-
8b	-ner
8cc	ro-
8a	-ther
8g	Wangen
8a	.
=4	=4
(4g	Prah-
4f)	.
4e}	-len,
=5	=5
{8cc	ſchöne
8cc	.
8dd	ro-
8dd	-the
8ee	Lippen,
8ee	.
=6	=6
8cc	ſchö-
8cc	-ne
8dd	Mar-
8dd	-mor-
8ee	-klip-
8ee}	-pen
=7	=7
{4cc	liebt
8eeL	mein
8ddJ	.
8ccL	Ge-
8bJ	.
=8	=8
4cc	-ſicht.
4r	.
4r}	.
==	==
!!!AGN: Lyrisches Lied, Romanze
!!!ONB: ESAC (Essen Associative Code) Database: ZUCCAL
!!!AMT: simple triple
!!!AIN: vox
!!!EED: Helmut Schaffrath
!!!EEV: 1.0
!!!GTL: IV. Lyrische Lieder.
!!!URL-scan: https://www.digitale-sammlungen.de/de/view/bsb11160571?page=508
!!!ENC: Anna Maria Matuszewska
!!!EEV: 2025/01/30
*-	*-
